X:1
T: Hey! Johnnie Cope
C:
R:Reel
Q: 232
K:Bm
M:4/4
L:1/8
|:f2|B2 B2 Bc de|f2 B2 B2 cB|A2 A2 AB cd|e2 a2 c2 A2|
d2 cd e2 de|f2 a2 c2 BA|B2 b2 fe dc|B4 B2:|
|:A2|d3d d2 A2|de fg af ed|c2 A2 e2 A2|ce df e2 c2|
d2 cd e2 de|f2 a2 c2 BA|B2 b2 fe dc|B4 B2:|
